X:1
T:The Well-Tempered Clavier Part II Fuga I
T:BWV 870
T:J. S. Bach
%%score { ( 1 2 4 ) | 3 }
L:1/8
M:2/4
K:C
V:1 treble nm="Harp"
V:2 treble 
V:4 treble 
V:3 bass 
V:1
 z4 | z4 | z4 | z4 | z c/B/ cG | e/4d/4e/-e d2 | z c/B/ c/d/B/c/ | A/c/B/c/ d/e/c/d/ | %8
 B/A/B/c/ B/c/A/B/ | c>A _B>G | A2 Bc- | c c2 B | cg/f/ gc | a2 g2 | ^fa/g/ ad | b2 a2 | %16
 ^gb/a/ be | c'4- | c'c' bg | e2 ^fg- | g^f/e/ g/4f/4g/4f/4g/4f/4g/ | ge ^cd- | %22
 d/g/_b/a/ g/f/e/d/ | ^c d2 c | z d/^c/ dA | f2 e2 | z d/c/ d/e/c/d/ | B/d/c/d/ e/f/d/e/ | %28
 ce/d/ ec | ac Ad | Bd/c/ dB | g_B Gc | Ad/c/ d/e/c/d/ | B/A/B/c/ B/c/A/B/ | Gc/B/ c/d/_B/c/ | %35
 A/G/A/_B/ A/B/G/A/ | G/4F/4G/4F/4G/4F/4G/4F/4 G/4F/4G/4F/4G/4F/4G/4F/4- | Fd/c/ dF | %38
 E/D/E/F/ E/F/D/E/ | C>C B,>B, | A,3 B, | C3 A, | D3 B, | E3 C | F3 D | G2 AB | c4- | c4- | c4- | %49
 c2 B2 | z c/B/ cG | e/4d/4e/-e d2 | z c/B/ c/d/B/c/ | A/c/B/c/ d/e/c/d/ | Bd/c/ dG | e2 d2 | %56
 ce/d/ eA | f2 e2 | df/e/ fB | g2 f2 | ef g2- | g2 f2- | f2 e2- | e2 dc | BG c2- | c2 B2 | %66
 cd G/cB/ | c/F/E/D/ E/F/D/E/ | F/E/F/G/ F/G/E/F/ | D/C/D/E/ D/E/C/D/ | E/D/E/F/ E/F/D/E/ | %71
[K:bass] C4- | C4- | C4- | CB, CD |[K:treble] EG/F/ GC | A2 G2 | z F/E/ FD | G2 F2 | E_AGB | %80
 cF Ec | Dc FB | [CEGc]4 |] %83
V:2
 z G/F/ GC | A/4G/4A/-A G2 | z F/E/ F/G/E/F/ | D/F/E/F/ G/A/F/G/ | E/D/E/F/ E/F/D/E/ | %5
 C/B,/C/D/ C/D/B,/C/ | A,/B,/C/D/ E/^F/G- | G^F/E/ G/4F/4G/4F/4G/4F/4G/4F/4 | G4 | G/E/F- F/D/E- | %10
 ED G2 | F/A/G/A/ D2 | G2 z2 | z c/B/ cG | d2 c2 | Bd/c/ dA | e2 d2 | ce/d/ ea | d4- | dc/B/ AB- | %20
 B[I:staff +1]A/G/ AD |[I:staff -1] B2 A2 | z[I:staff +1] G/F/ G/A/F/G/ | %23
 E/[I:staff -1]G/F/G/ A/_B/G/A/ | F/E/F/G/ F/G/E/F/ | D/C/D/E/ D/E/C/D/ | B,/C/D/E/ ^F/^G/A- | %27
 A^G/^F/ A/4G/4A/4G/4A/4G/4A/4G/4 | A/^G/A/B/ A/B/=G/A/ | ^F/E/F/G/ F/G/E/F/ | %30
 G/^F/G/A/ G/A/=F/G/ | E/D/E/F/ E/F/D/E/ | F/E/F/G/ F/G/E/F/ | DG/F/ G/A/F/G/ | E/D/E/F/ E/F/D/E/ | %35
 CF/E/ F/G/E/F/ | D/C/D/E/ D/E/C/D/ | B,/A,/B,/C/ B,/C/A,/B,/ | C3 B,- | B,/B,/A,- A,/A,/G,- | %40
 G,G, ^F,G,- | G,/^F,/G,/E,/ =F,2- | F,B, G,2- | G,C A,2- | A,D B,2- | B,B, CD | EG/F/ GC | %47
 B/4A/4B/4A/4B/4A/4B/4A/4 G2 | z F/E/ F/G/E/F/ | D/F/E/F/ G/A/F/G/ | E/D/E/F/ E/F/D/E/ | %51
 C/B,/C/D/ C/D/B,/C/ | A,/B,/C/D/ E/^F/G- | G G2 ^F | G2 z2 | z G/F/ GD | A2 G2 | FA/G/ AE | %58
 B2 A2 | GB BG | c2 _B2 | A4 | G4 | F4- | F2 E2 | D2- D/F/E/D/ | G/A/F/G/ ED | C4- | C4- | C4- | %70
 C C2 B, |[K:bass] CG,/F,/ G,C, | A,2 G,2 | z F,/E,/ F,D, | G,2 A,B, |[K:treble] C_B,/A,/ B,E | %76
 F2 E2 | x4 | z D/C/ DG, | CFE_A | GD C z | D z D z | x4 |] %83
V:3
 z4 | z4 | z4 | z4 | z4 | z4 | z4 | z4 | z G,/F,/ G,C, | A,/4G,/4A,/-A, G,2 | %10
 z F,/E,/ F,/G,/E,/F,/ | D,/F,/E,/F,/ G,/A,/F,/G,/ | E,/D,/E,/F,/ E,/F,/D,/E,/ | %13
 F,/E,/F,/G,/ F,/G,/E,/F,/ | D,/^C,/D,/E,/ ^F,/G,/E,/F,/ | G,/^F,/G,/A,/ G,/A,/=F,/G,/ | %16
 E,/D,/E,/^F,/ ^G,/A,/F,/G,/ | A,/^G,/A,/B,/ A,/B,/=G,/A,/ | ^F,/G,/E,/F,/ G,/A,/B,/G,/ | %19
 C/B,/C/D/ C/D/B,/C/ | D4 | G,G/F/ G/A/F/G/ | E4 | z D F,A, | D, z z2 | z4 | z4 | z4 | z4 | z4 | %30
 z4 | z4 | z4 | z4 | z4 | z4 | z4 | z4 | z C,/B,,/ C,G,, | E,/4D,/4E,/-E, D,2 | %40
 z C,/B,,/ C,/D,/B,,/C,/ | A,,/C,/B,,/C,/ D,/E,/C,/D,/ | B,,/D,/C,/D,/ E,/F,/D,/E,/ | %43
 C,/E,/D,/E,/ F,/G,/E,/F,/ | D,/F,/E,/F,/ G,/A,/F,/G,/ | E,/D,/E,/F,/ E,/F,/D,/E,/ | %46
 C,/D,/E,/D,/ C,/_B,,/A,,/G,,/ | F,,/E,,/F,,/G,,/ F,,/G,,/E,,/F,,/ | D,,/A,,/B,,/C,/ D,/E,/F,/D,/ | %49
 G,4- | G,4- | G,4 | z2 z B, | CA, DD, | G,,/^F,,/G,,/A,,/ B,,/C,/A,,/B,,/ | %55
 C,/B,,/C,/D,/ C,/D,/B,,/C,/ | A,,/^G,,/A,,/B,,/ C,/D,/B,,/C,/ | D,/C,/D,/E,/ D,/E,/C,/D,/ | %58
 B,,/A,,/B,,/C,/ D,/E,/C,/D,/ | E,/D,/E,/F,/ E,/F,/D,/E,/ | C,/B,,/C,/D,/ E,/F,/D,/E,/ | %61
 F,/G,/F,/E,/ D,/C,/B,,/A,,/ | B,,/G,,/A,,/B,,/ C,/D,/B,,/C,/ | A,,/C,/B,,/C,/ D,/E,/F,/D,/ | %64
 G,/A,/F,/G,/ A,/B,/G,/A,/ | F,/G,/E,/F,/ G,/A,/F,/G,/ | E,F, G,^G, | A,,G,/F,/ G,C, | A,2 G,2 | %69
 z F,/E,/ F,D, | G,2 F,2 | E,/D,/E,/F,/ E,/F,/D,/E,/ | F,/E,/F,/G,/ F,/G,/E,/F,/ | %73
 D,/C,/D,/E,/ D,/C,/B,,/A,,/ | G,,/F,,/G,,/A,,/ G,,/F,,/E,,/D,,/ | C,,/C,/E,/C,/ C,,/C,/G,/C,/ | %76
 C,,/D,,/E,,/F,,/ G,,/A,,/B,,/C,/ | C,,/C,/D,/C,/ C,,/C,/F,/C,/ | %78
 B,,/C,/B,,/A,,/ G,,/F,,/E,,/D,,/ | C,,/C,/D,/C,/ E,/C,/F,/C,/ | G,/C,/_A,/C,/ G,/C,/B,,/C,/ | %81
 F,, z G,, z | C,,4 |] %83
V:4
 x4 | x4 | x4 | x4 | x4 | x4 | x4 | x4 | x4 | x4 | x4 | x4 | x4 | x4 | x4 | x4 | x4 | x4 | x4 | %19
 x4 | x4 | x4 | x4 | x4 | x4 | x4 | x4 | x4 | x4 | x4 | x4 | x4 | x4 | x4 | x4 | x4 | x4 | x4 | %38
 x4 | x4 | x4 | x4 | x4 | x4 | x4 | x4 | x4 | x4 | x4 | x4 | x4 | x4 | x4 | x4 | x4 | x4 | x4 | %57
 x4 | x4 | x4 | x4 | x4 | x4 | x4 | x4 | x4 | x4 | x4 | x4 | x4 | x4 |[K:bass] x4 | x4 | x4 | x4 | %75
[K:treble] x4 | x4 | x4 | x4 | z B,CD | EB, CE | %81
[I:staff +1] A,[I:staff -1] z[I:staff +1] G,[I:staff -1] z | x4 |] %83

